X: 138024
Q: "Irish Jig."
M: 6/8
L: 1/8
K: D
uA |\
dAF DFA | ded cBA | dcd efg | fed cBA |\
dAF DFA | ded cBA | dcd ede | fdd d2 :|
|: ue |\
fgf fga | efe ue2uc | dcd Bed | cAA uA2uA |\


